X: 1
P: Jackson's Trip To Aughrim
C: from Buddy MacMaster "Judique on the Floor"
C: Arr. T. Traub 1-15-2007
M: 6/8
L: 1/8
R: jig
K: Dmaj
|: B |"D"A2D FED|FGA FED|"G"B2 G "D"A2 F|"Em"EFE "A"E2B| "D"A2D FED|FGA FED|"G"B2 G "A"A2 F| "D"DED D2 :|
|: d |"D"f2d edB|"Bm"d2B BAF|"Em"EFE EFA|"G"dcd "A"efg| "D"fed "A"edB|"Bm"d2 B BAF|"G"AFA "A"BdF | "D"DED D2 :|
